src/assets/filled/Box.svg

<svg width="24" height="24" viewBox="0 0 24 24"  xmlns="http://www.w3.org/2000/svg">
<path d="M20.21 7.81994L12.51 12.2799C12.2 12.4599 11.81 12.4599 11.49 12.2799L3.78997 7.81994C3.23997 7.49994 3.09997 6.74994 3.51997 6.27994C3.80997 5.94994 4.13997 5.67994 4.48997 5.48994L9.90997 2.48994C11.07 1.83994 12.95 1.83994 14.11 2.48994L19.53 5.48994C19.88 5.67994 20.21 5.95994 20.5 6.27994C20.9 6.74994 20.76 7.49994 20.21 7.81994Z" />
<path d="M11.43 14.1399V20.9599C11.43 21.7199 10.66 22.2199 9.97998 21.8899C7.91998 20.8799 4.44998 18.9899 4.44998 18.9899C3.22998 18.2999 2.22998 16.5599 2.22998 15.1299V9.96988C2.22998 9.17988 3.05998 8.67988 3.73998 9.06988L10.93 13.2399C11.23 13.4299 11.43 13.7699 11.43 14.1399Z" />
<path d="M12.5701 14.1399V20.9599C12.5701 21.7199 13.3401 22.2199 14.0201 21.8899C16.0801 20.8799 19.5501 18.9899 19.5501 18.9899C20.7701 18.2999 21.7701 16.5599 21.7701 15.1299V9.96988C21.7701 9.17988 20.9401 8.67988 20.2601 9.06988L13.0701 13.2399C12.7701 13.4299 12.5701 13.7699 12.5701 14.1399Z" />
</svg>

<?xml version="1.0" encoding="UTF-8"?>
<svg width="24" height="24" viewBox="0 0 24 24" xmlns="http://www.w3.org/2000/svg">
 <path d="m20.21 7.8199-7.7 4.46c-0.31 0.18-0.7 0.18-1.02 0l-7.7-4.46c-0.55-0.32-0.69-1.07-0.27-1.54 0.29-0.33 0.62-0.6 0.97-0.79l5.42-3c1.16-0.65 3.04-0.65 4.2 0l5.42 3c0.35 0.19 0.68 0.47 0.97 0.79 0.4 0.47 0.26 1.22-0.29 1.54z"/>
 <path d="m11.43 14.14v6.82c0 0.76-0.77 1.26-1.45 0.93-2.06-1.01-5.53-2.9-5.53-2.9-1.22-0.69-2.22-2.43-2.22-3.86v-5.16c0-0.79 0.83-1.29 1.51-0.9l7.19 4.17c0.3 0.19 0.5 0.53 0.5 0.9z"/>
 <path d="m12.57 14.14v6.82c0 0.76 0.77 1.26 1.45 0.93 2.06-1.01 5.53-2.9 5.53-2.9 1.22-0.69 2.22-2.43 2.22-3.86v-5.16c0-0.79-0.83-1.29-1.51-0.9l-7.19 4.17c-0.3 0.19-0.5 0.53-0.5 0.9z"/>
</svg>
